src/16/actions/anchor.svg

<svg xmlns="http://www.w3.org/2000/svg" viewBox="0 0 16 16">
  <defs id="defs3051">
    <style type="text/css" id="current-color-scheme">
      .ColorScheme-Text {
        color:#5d656b;
      }
      </style>
  </defs>
 <path style="fill:currentColor;fill-opacity:1;stroke:none" 
     d="M 8 2 C 6.89543 2 6 2.89543 6 4 C 6 4.93198 6.6373 5.71554 7.5 5.9375 L 7.5 8 L 5 8 L 5 9 L 7.5 9 L 7.5 10 L 7.5 12.96875 C 6.3123571 12.892642 4.936375 12.390014 3.9375 11.84375 L 4.4375 11.1875 L 3.59375 10.625 L 2 12.78125 C 2 12.78125 2.84332 13.30831 2.84375 13.3125 L 3.3125 12.6875 C 4.6170785 13.429365 6.4060192 14 8 14 C 9.598782 14 11.351983 13.401328 12.65625 12.65625 L 13.15625 13.3125 L 14 12.75 L 12.375 10.59375 L 11.5625 11.1875 L 12.03125 11.8125 C 11.030728 12.365584 9.7016152 12.891717 8.5 12.96875 L 8.5 10 L 8.5 9 L 11 9 L 11 8 L 8.5 8 L 8.5 5.9375 C 9.3627 5.71554 10 4.93198 10 4 C 10 2.89543 9.10457 2 8 2 z M 8 3 C 8.55228 3 9 3.44772 9 4 C 9 4.55228 8.55228 5 8 5 C 7.44772 5 7 4.55228 7 4 C 7 3.44772 7.44772 3 8 3 z "
     class="ColorScheme-Text"
     />
</svg>

<svg xmlns="http://www.w3.org/2000/svg" viewBox="0 0 16 16"><path d="M8 2a2 2 0 0 0-.5 3.938V8H5v1h2.5v3.969c-1.188-.076-2.564-.579-3.563-1.125l.5-.656-.843-.563L2 12.781s.843.527.844.531l.469-.624C4.617 13.428 6.405 14 8 14c1.599 0 3.352-.599 4.656-1.344l.5.656.844-.562-1.625-2.156-.813.594.47.624c-1.001.554-2.33 1.08-3.532 1.157V9H11V8H8.5V5.937A2.001 2.001 0 0 0 8 2zm0 1a1 1 0 1 1 0 2 1 1 0 0 1 0-2z" fill="currentColor" color="#5d656b"/></svg>
